build/img/icon/basket-icon.svg

<svg width="36" height="36" viewBox="0 0 36 36" fill="none" xmlns="http://www.w3.org/2000/svg">
<path d="M33.2608 11.5435H31.3947C31.3804 11.5276 31.367 11.5112 31.3518 11.496L21.1779 1.3221C20.7195 0.863662 19.9762 0.863662 19.5178 1.3221C19.0593 1.78054 19.0593 2.52381 19.5178 2.98225L28.0789 11.5434H7.92099L16.4822 2.98225C16.9407 2.52381 16.9407 1.78054 16.4822 1.3221C16.0239 0.863662 15.2805 0.863662 14.8221 1.3221L4.64815 11.496C4.63289 11.5113 4.61953 11.5277 4.60526 11.5435H2.73916C1.22878 11.5435 0 12.7723 0 14.2826V15.8478C0 17.2865 1.1148 18.4696 2.52591 18.5788L4.77591 32.079C5.06018 33.7841 6.52106 35.0218 8.24977 35.0218H28.0941C29.8354 35.0218 31.3341 33.7218 31.5804 31.998L33.4977 18.5768C34.8976 18.4563 35.9999 17.2783 35.9999 15.8478V14.2826C36 12.7723 34.7712 11.5435 33.2608 11.5435ZM33.6522 15.8478C33.6522 16.0636 33.4766 16.2391 33.2609 16.2391C32.9005 16.2391 22.0361 16.2391 21.5218 16.2391C20.8735 16.2391 20.3479 16.7647 20.3479 17.413C20.3479 18.0613 20.8735 18.587 21.5218 18.587H31.1248L29.2563 31.6661C29.1742 32.2407 28.6746 32.6739 28.0941 32.6739H8.24977C7.67356 32.6739 7.18657 32.2614 7.09179 31.693L4.90753 18.587H14.4783C15.1265 18.587 15.6522 18.0614 15.6522 17.413C15.6522 16.7648 15.1266 16.2391 14.4783 16.2391C13.9632 16.2391 3.09804 16.2391 2.73916 16.2391C2.52338 16.2391 2.34788 16.0635 2.34788 15.8478V14.2826C2.34788 14.0668 2.52345 13.8913 2.73916 13.8913H33.2609C33.4767 13.8913 33.6522 14.0669 33.6522 14.2826V15.8478Z" fill="#E33439"/>
<path d="M10.9567 20.9348C10.3084 20.9348 9.78271 21.4604 9.78271 22.1088V29.1522C9.78271 29.8005 10.3083 30.3262 10.9567 30.3262C11.605 30.3262 12.1306 29.8006 12.1306 29.1522V22.1087C12.1306 21.4604 11.605 20.9348 10.9567 20.9348Z" fill="#E33439"/>
<path d="M18.0001 20.9348C17.3518 20.9348 16.8262 21.4604 16.8262 22.1088V29.1522C16.8262 29.8005 17.3518 30.3262 18.0001 30.3262C18.6484 30.3262 19.174 29.8006 19.174 29.1522V22.1087C19.174 21.4604 18.6484 20.9348 18.0001 20.9348Z" fill="#E33439"/>
<path d="M25.0433 20.9348C24.395 20.9348 23.8694 21.4604 23.8694 22.1088V29.1522C23.8694 29.8005 24.395 30.3262 25.0433 30.3262C25.6916 30.3262 26.2173 29.8006 26.2173 29.1522V22.1087C26.2173 21.4604 25.6916 20.9348 25.0433 20.9348Z" fill="#E33439"/>
</svg>

<svg width="36" height="36" viewBox="0 0 36 36" fill="none" xmlns="http://www.w3.org/2000/svg"><path d="M33.26 11.543h-1.865l-.043-.047L21.178 1.322a1.174 1.174 0 10-1.66 1.66l8.56 8.561H7.922l8.561-8.56a1.174 1.174 0 10-1.66-1.66L4.648 11.495l-.043.047H2.74A2.742 2.742 0 000 14.284v1.565a2.743 2.743 0 002.526 2.73l2.25 13.501a3.51 3.51 0 003.474 2.943h19.844a3.54 3.54 0 003.486-3.024l1.918-13.421A2.743 2.743 0 0036 15.847v-1.564c0-1.51-1.229-2.74-2.74-2.74zm.392 4.305a.392.392 0 01-.391.391H21.52a1.174 1.174 0 000 2.348h9.604l-1.869 13.08a1.18 1.18 0 01-1.162 1.007H8.25a1.17 1.17 0 01-1.158-.981L4.908 18.587h9.57a1.174 1.174 0 000-2.348H2.74a.392.392 0 01-.391-.391v-1.565c0-.216.175-.392.391-.392h30.522c.216 0 .391.176.391.392v1.565z" fill="#E33439"/><path d="M10.957 20.935c-.649 0-1.174.525-1.174 1.174v7.043a1.174 1.174 0 002.348 0V22.11c0-.649-.526-1.174-1.174-1.174zm7.043 0c-.648 0-1.174.525-1.174 1.174v7.043a1.174 1.174 0 002.348 0V22.11c0-.649-.526-1.174-1.174-1.174zm7.043 0c-.648 0-1.174.525-1.174 1.174v7.043a1.174 1.174 0 002.348 0V22.11c0-.649-.525-1.174-1.174-1.174z" fill="#E33439"/></svg>
